X:1
T:Flowers of the Valley
M:4/4
L:1/8
K:G
 D| D2E-F G2G-A| _B2A-GA-A z D| D2 EF G2 FE| E4 D z2| D| D2 EF G2G-A|\
 _B2A-GA-A z D/2D/2| D2E-F G2 FE| E4 D z2| z A| A3 B c3 B| A3 G F2 ED|\
 D4 D2 z2| d2 cB AB| cB| A6 z D-| D2 EF G2 FE| E2 D2 z2 z||

